resources/images/undo_toolbar.svg

<svg width="128" height="128" viewBox="0 0 128 128" fill="none" xmlns="http://www.w3.org/2000/svg">
<path d="M36.57 72.2101C37.3 72.2101 38.03 71.8901 38.52 71.2701C39.38 70.1901 39.21 68.6201 38.13 67.7601L12 46.8601L38.13 25.9601C39.21 25.1001 39.38 23.5201 38.52 22.4501C37.66 21.3701 36.09 21.2001 35.01 22.0601L6.44 44.9001C5.85 45.3801 5.5 46.1001 5.5 46.8601C5.5 47.6201 5.85 48.3401 6.44 48.8101L35.01 71.6701C35.47 72.0401 36.02 72.2101 36.57 72.2101Z" fill="#ED6B21"/>
<path d="M48 106.5H91.43C108.56 106.5 122.5 92.5601 122.5 75.4301C122.5 58.3001 108.56 44.3601 91.43 44.3601H8C6.62 44.3601 5.5 45.4801 5.5 46.8601C5.5 48.2401 6.62 49.3601 8 49.3601H91.43C105.81 49.3601 117.5 61.0601 117.5 75.4301C117.5 89.8001 105.8 101.5 91.43 101.5H48C46.62 101.5 45.5 102.62 45.5 104C45.5 105.38 46.62 106.5 48 106.5Z" fill="#ED6B21"/>
</svg>

<?xml version="1.0" encoding="utf-8"?>
<!-- Generator: Adobe Illustrator 24.3.0, SVG Export Plug-In . SVG Version: 6.00 Build 0)  -->
<svg version="1.0" id="Layer_1" xmlns="http://www.w3.org/2000/svg" xmlns:xlink="http://www.w3.org/1999/xlink" x="0px" y="0px"
	 viewBox="0 0 128 128" enable-background="new 0 0 128 128" xml:space="preserve">
<g id="redo">
	<g>
		<path fill="#ED6B21" d="M36.57,72.21c0.73,0,1.46-0.32,1.95-0.94c0.86-1.08,0.69-2.65-0.39-3.51L12,46.86l26.13-20.9
			c1.08-0.86,1.25-2.44,0.39-3.51c-0.86-1.08-2.43-1.25-3.51-0.39L6.44,44.9C5.85,45.38,5.5,46.1,5.5,46.86s0.35,1.48,0.94,1.95
			l28.57,22.86C35.47,72.04,36.02,72.21,36.57,72.21z"/>
	</g>
	<g>
		<path fill="#ED6B21" d="M48,106.5h43.43c17.13,0,31.07-13.94,31.07-31.07s-13.94-31.07-31.07-31.07H8c-1.38,0-2.5,1.12-2.5,2.5
			s1.12,2.5,2.5,2.5h83.43c14.38,0,26.07,11.7,26.07,26.07s-11.7,26.07-26.07,26.07H48c-1.38,0-2.5,1.12-2.5,2.5
			S46.62,106.5,48,106.5z"/>
	</g>
</g>
</svg>
